assets/svg/partners/lyra.svg

<svg fill="none" height="30" viewBox="0 0 30 30" width="30" xmlns="http://www.w3.org/2000/svg"><path clip-rule="evenodd" d="m.215332 17.5228c.412905.6553 1.196208 1.3013 3.330578 1.2983h20.76369c.8046 0 1.7123.6027 2.0312 1.3507l3.4429 8.151c.3157.7481-.082 1.3539-.8866 1.3539h-21.27982c-1.26604-.0804-2.441-.4141-2.98446-1.7001zm17.855168-16.861556 3.4823 8.253076c.3158.7511.1185 1.83298-.4432 2.42028l-5.049 5.3814h-11.47939c-1.81861.0217-2.89641-.68-1.35105-2.3893l13.25554-13.959104c.5586-.587295 1.269-.4574726 1.5848.293648z" fill="#ece8e3" fill-rule="evenodd"/></svg>

<svg width="86" height="32" viewBox="0 0 86 32" fill="none" xmlns="http://www.w3.org/2000/svg">
<g clip-path="url(#clip0_264_12630)">
<path fill-rule="evenodd" clip-rule="evenodd" d="M0.215332 17.5228C0.628237 18.1781 1.41154 18.8241 3.54591 18.8211H24.3096C25.1142 18.8211 26.0219 19.4238 26.3408 20.1718L29.7837 28.3228C30.0994 29.0709 29.7017 29.6767 28.8971 29.6767H7.61728C6.35124 29.5963 5.17628 29.2626 4.63282 27.9766L0.215332 17.5228ZM18.0705 0.661244L21.5528 8.91432C21.8686 9.66542 21.6713 10.7473 21.1096 11.3346L16.0606 16.716H4.58121C2.7626 16.7377 1.6848 16.036 3.23016 14.3267L16.4857 0.367596C17.0443 -0.219699 17.7547 -0.0898764 18.0705 0.661244Z" fill="#ECE8E3"/>
</g>
<path d="M41.7773 26.094H51.8961V21.8835H46.7768V5.33398H41.7773V26.094Z" fill="#ECE8E3"/>
<path d="M53.0664 32.0004C57.0181 32.0004 59.2335 30.5092 60.1316 26.5911L63.6043 11.4743H58.7245L57.7965 18.9303C57.6468 20.2169 57.5869 21.2987 57.527 23.0239H57.4073C57.3474 21.6496 57.3175 20.3923 57.1079 18.8719L56.1499 11.4743H51.0307L54.8327 26.4157L54.713 26.9127C54.4735 27.9361 53.7849 28.3162 52.4976 28.3162C52.2581 28.3162 52.0186 28.3162 51.6294 28.2285V31.9127C52.0186 31.9712 52.4677 32.0004 53.0664 32.0004Z" fill="#ECE8E3"/>
<path d="M68.7743 14.6321V11.4743H64.4633V26.094H69.1634V18.7257C69.1634 17.673 69.373 16.9713 69.7921 16.5619C70.2711 16.0649 70.8698 15.9187 71.6183 15.9187C72.0374 15.9187 72.3368 15.9479 72.6661 16.0064V11.2111C72.5463 11.1819 72.5164 11.1819 72.3966 11.1819C70.2711 11.1819 69.1036 12.7316 68.7743 14.6321Z" fill="#ECE8E3"/>
<path d="M77.2195 26.4449C79.0756 26.4449 80.4827 25.4508 80.6922 23.9595C80.6922 24.4858 80.7821 25.4508 80.8719 26.094H85.3325C85.1529 25.363 85.093 24.3689 85.093 22.9362V15.7725C85.093 12.5269 83.3566 11.1234 79.4648 11.1234C75.9023 11.1234 73.7468 12.6439 73.7468 15.5386V16.5912H78.417V15.2462C78.417 14.4567 78.7763 14.0474 79.4349 14.0474C80.0636 14.0474 80.3929 14.3982 80.3929 15.1877V16.9128L78.1476 17.4099C76.531 17.7608 75.5131 18.1994 74.7946 18.7549C73.9265 19.4274 73.4175 20.5093 73.4175 21.7081V22.8777C73.4175 25.0414 74.9144 26.4449 77.2195 26.4449ZM79.3151 23.3747C78.6865 23.3747 78.3572 22.8777 78.3572 22.0005V21.5034C78.3572 20.3338 78.7463 19.7491 79.5546 19.5444L80.4527 19.3105V22.0005C80.4527 22.8484 80.0037 23.3747 79.3151 23.3747Z" fill="#ECE8E3"/>
<defs>
<clipPath id="clip0_264_12630">
<rect width="30.2219" height="30.2219" fill="white"/>
</clipPath>
</defs>
</svg>
